SVG_Azure_All/Azure Active Directory.svg

<?xml version="1.0" encoding="UTF-8" standalone="no"?>
<!-- Generated by Microsoft Visio, SVG Export Azure Active Directory.svg Page-1 -->

<svg
   xmlns:dc="http://purl.org/dc/elements/1.1/"
   xmlns:cc="http://creativecommons.org/ns#"
   xmlns:rdf="http://www.w3.org/1999/02/22-rdf-syntax-ns#"
   xmlns:svg="http://www.w3.org/2000/svg"
   xmlns="http://www.w3.org/2000/svg"
   xmlns:sodipodi="http://sodipodi.sourceforge.net/DTD/sodipodi-0.dtd"
   xmlns:inkscape="http://www.inkscape.org/namespaces/inkscape"
   width="0.78744471in"
   height="0.70870775in"
   viewBox="0 0 56.695927 51.026942"
   xml:space="preserve"
   class="st7"
   version="1.1"
   id="svg66"
   sodipodi:docname="Azure Active Directory.svg"
   style="font-size:12px;overflow:visible;color-interpolation-filters:sRGB;fill:none;fill-rule:evenodd;stroke-linecap:square;stroke-miterlimit:3"
   inkscape:version="0.92.5 (2060ec1f9f, 2020-04-08)"><metadata
   id="metadata70"><rdf:RDF><cc:Work
       rdf:about=""><dc:format>image/svg+xml</dc:format><dc:type
         rdf:resource="http://purl.org/dc/dcmitype/StillImage" /></cc:Work></rdf:RDF></metadata><sodipodi:namedview
   pagecolor="#ffffff"
   bordercolor="#666666"
   borderopacity="1"
   objecttolerance="10"
   gridtolerance="10"
   guidetolerance="10"
   inkscape:pageopacity="0"
   inkscape:pageshadow="2"
   inkscape:window-width="640"
   inkscape:window-height="480"
   id="namedview68"
   showgrid="false"
   inkscape:zoom="1.4869072"
   inkscape:cx="37.795348"
   inkscape:cy="34.006413"
   inkscape:window-x="0"
   inkscape:window-y="0"
   inkscape:window-maximized="0"
   inkscape:current-layer="svg66" />
	<style
   type="text/css"
   id="style2">
	<![CDATA[
		.st1 {fill:#50e6ff;stroke:none;stroke-linecap:butt;stroke-width:34}
		.st2 {fill:#ffffff;stroke:none;stroke-linecap:butt;stroke-width:34}
		.st3 {fill:url(#grad0-12);stroke:none;stroke-linecap:butt;stroke-width:34}
		.st4 {fill:#53b1e0;stroke:none;stroke-linecap:butt;stroke-width:34}
		.st5 {fill:#9cebff;stroke:none;stroke-linecap:butt;stroke-width:34}
		.st6 {fill:url(#grad0-20);stroke:none;stroke-linecap:butt;stroke-width:34}
		.st7 {fill:none;fill-rule:evenodd;font-size:12px;overflow:visible;stroke-linecap:square;stroke-miterlimit:3}
	]]>
	</style>

	<defs
   id="Patterns_And_Gradients">
		<linearGradient
   id="grad0-12"
   x1="0"
   y1="57.80742"
   x2="31.399156"
   y2="57.80742"
   gradientTransform="scale(0.7493832,1.3344308)"
   gradientUnits="userSpaceOnUse">
			<stop
   offset="0"
   stop-color="#1988d9"
   stop-opacity="1"
   id="stop4" />
			<stop
   offset="0.9"
   stop-color="#54aef0"
   stop-opacity="1"
   id="stop6" />
		</linearGradient>
		<linearGradient
   id="grad0-20"
   x1="0"
   y1="111.06135"
   x2="24.996518"
   y2="111.06135"
   gradientTransform="scale(1.1429592,0.87492187)"
   gradientUnits="userSpaceOnUse">
			<stop
   offset="0.1"
   stop-color="#54aef0"
   stop-opacity="1"
   id="stop9" />
			<stop
   offset="0.29"
   stop-color="#4fabee"
   stop-opacity="1"
   id="stop11" />
			<stop
   offset="0.51"
   stop-color="#41a2e9"
   stop-opacity="1"
   id="stop13" />
			<stop
   offset="0.74"
   stop-color="#2a93e0"
   stop-opacity="1"
   id="stop15" />
			<stop
   offset="0.88"
   stop-color="#1988d9"
   stop-opacity="1"
   id="stop17" />
		</linearGradient>
	</defs>
	<g
   id="g64"
   transform="translate(-34.000079,-33.99736)">
		<title
   id="title21">Page-1</title>
		<g
   id="group8890-1"
   transform="translate(34,-34.0157)">
			<title
   id="title23">Azure Active Directory</title>
			<g
   id="group8891-2">
				<title
   id="title25">Sheet.8891</title>
				<g
   id="shape8892-3">
					<title
   id="title27">Sheet.8892</title>
					<path
   d="m 3.18,97.23 24.95,16.02 25.38,-16.08 3.18,3.68 L 28.13,119.04 0,100.85 Z"
   class="st1"
   id="path29"
   inkscape:connector-curvature="0"
   style="fill:#50e6ff;stroke:none;stroke-width:34;stroke-linecap:butt" />
				</g>
				<g
   id="shape8893-5"
   transform="translate(5.07087,-9.12694)">
					<title
   id="title32">Sheet.8893</title>
					<path
   d="m 0,104.31 23.06,-27.17 23.52,27.2 -23.52,14.7 z"
   class="st2"
   id="path34"
   inkscape:connector-curvature="0"
   style="fill:#ffffff;stroke:none;stroke-width:34;stroke-linecap:butt" />
				</g>
				<g
   id="shape8894-7"
   transform="translate(5.07087,-9.12694)">
					<title
   id="title37">Sheet.8894</title>
					<path
   d="m 23.06,77.14 v 41.9 L 0,104.31 Z"
   class="st1"
   id="path39"
   inkscape:connector-curvature="0"
   style="fill:#50e6ff;stroke:none;stroke-width:34;stroke-linecap:butt" />
				</g>
				<g
   id="shape8895-9"
   transform="translate(28.126,-9.12694)">
					<title
   id="title42">Sheet.8895</title>
					<path
   d="m 0,77.14 v 41.9 l 23.53,-14.7 z"
   class="st3"
   id="path44"
   inkscape:connector-curvature="0"
   style="fill:url(#grad0-12);stroke:none;stroke-width:34;stroke-linecap:butt" />
				</g>
				<g
   id="shape8896-13"
   transform="translate(28.126,-9.12694)">
					<title
   id="title47">Sheet.8896</title>
					<path
   d="M 0,98.79 23.53,104.34 0,119.04 Z"
   class="st4"
   id="path49"
   inkscape:connector-curvature="0"
   style="fill:#53b1e0;stroke:none;stroke-width:34;stroke-linecap:butt" />
				</g>
				<g
   id="shape8897-15"
   transform="translate(5.07087,-9.12694)">
					<title
   id="title52">Sheet.8897</title>
					<path
   d="M 23.06,119.04 0,104.31 23.06,98.79 Z"
   class="st5"
   id="path54"
   inkscape:connector-curvature="0"
   style="fill:#9cebff;stroke:none;stroke-width:34;stroke-linecap:butt" />
				</g>
				<g
   id="shape8898-17"
   transform="translate(28.126)">
					<title
   id="title57">Sheet.8898</title>
					<path
   d="M 0,119.04 28.57,100.85 25.39,97.17 0,113.25 Z"
   class="st6"
   id="path59"
   inkscape:connector-curvature="0"
   style="fill:url(#grad0-20);stroke:none;stroke-width:34;stroke-linecap:butt" />
				</g>
			</g>
		</g>
	</g>
</svg>

<?xml version="1.0" encoding="UTF-8" standalone="no"?>
<!DOCTYPE svg PUBLIC "-//W3C//DTD SVG 1.1//EN" "http://www.w3.org/Graphics/SVG/1.1/DTD/svg11.dtd">
<!-- Generated by Microsoft Visio, SVG Export Azure Active Directory.svg Page-1 -->
<svg xmlns="http://www.w3.org/2000/svg" xmlns:xlink="http://www.w3.org/1999/xlink" xmlns:ev="http://www.w3.org/2001/xml-events"
		width="1.73185in" height="1.65332in" viewBox="0 0 124.693 119.039" xml:space="preserve" color-interpolation-filters="sRGB"
		class="st7">
	<style type="text/css">
	<![CDATA[
		.st1 {fill:#50e6ff;stroke:none;stroke-linecap:butt;stroke-width:34}
		.st2 {fill:#ffffff;stroke:none;stroke-linecap:butt;stroke-width:34}
		.st3 {fill:url(#grad0-12);stroke:none;stroke-linecap:butt;stroke-width:34}
		.st4 {fill:#53b1e0;stroke:none;stroke-linecap:butt;stroke-width:34}
		.st5 {fill:#9cebff;stroke:none;stroke-linecap:butt;stroke-width:34}
		.st6 {fill:url(#grad0-20);stroke:none;stroke-linecap:butt;stroke-width:34}
		.st7 {fill:none;fill-rule:evenodd;font-size:12px;overflow:visible;stroke-linecap:square;stroke-miterlimit:3}
	]]>
	</style>

	<defs id="Patterns_And_Gradients">
		<linearGradient id="grad0-12" x1="0" y1="0" x2="1" y2="0" gradientTransform="rotate(-133.54829310906 0.5 0.5)">
			<stop offset="0" stop-color="#1988d9" stop-opacity="1"/>
			<stop offset="0.9" stop-color="#54aef0" stop-opacity="1"/>
		</linearGradient>
		<linearGradient id="grad0-20" x1="0" y1="0" x2="1" y2="0" gradientTransform="rotate(65.834982258294 0.5 0.5)">
			<stop offset="0.1" stop-color="#54aef0" stop-opacity="1"/>
			<stop offset="0.29" stop-color="#4fabee" stop-opacity="1"/>
			<stop offset="0.51" stop-color="#41a2e9" stop-opacity="1"/>
			<stop offset="0.74" stop-color="#2a93e0" stop-opacity="1"/>
			<stop offset="0.88" stop-color="#1988d9" stop-opacity="1"/>
		</linearGradient>
	</defs>
	<g>
		<title>Page-1</title>
		<g id="group8695-1" transform="translate(34,-34.0157)">
			<title>Azure Active Directory</title>
			<g id="group8696-2">
				<title>Sheet.8696</title>
				<g id="shape8697-3">
					<title>Sheet.8697</title>
					<path d="M3.18 97.23 L28.13 113.25 L53.51 97.17 L56.69 100.85 L28.13 119.04 L0 100.85 L3.18 97.23 Z"
							class="st1"/>
				</g>
				<g id="shape8698-5" transform="translate(5.07087,-9.12694)">
					<title>Sheet.8698</title>
					<path d="M0 104.31 L23.06 77.14 L46.58 104.34 L23.06 119.04 L0 104.31 Z" class="st2"/>
				</g>
				<g id="shape8699-7" transform="translate(5.07087,-9.12694)">
					<title>Sheet.8699</title>
					<path d="M23.06 77.14 L23.06 119.04 L0 104.31 L23.06 77.14 Z" class="st1"/>
				</g>
				<g id="shape8700-9" transform="translate(28.126,-9.12694)">
					<title>Sheet.8700</title>
					<path d="M0 77.14 L0 119.04 L23.53 104.34 L0 77.14 Z" class="st3"/>
				</g>
				<g id="shape8701-13" transform="translate(28.126,-9.12694)">
					<title>Sheet.8701</title>
					<path d="M0 98.79 L23.53 104.34 L0 119.04 L0 98.79 Z" class="st4"/>
				</g>
				<g id="shape8702-15" transform="translate(5.07087,-9.12694)">
					<title>Sheet.8702</title>
					<path d="M23.06 119.04 L0 104.31 L23.06 98.79 L23.06 119.04 Z" class="st5"/>
				</g>
				<g id="shape8703-17" transform="translate(28.126,2.55795E-13)">
					<title>Sheet.8703</title>
					<path d="M0 119.04 L28.57 100.85 L25.39 97.17 L0 113.25 L0 119.04 Z" class="st6"/>
				</g>
			</g>
		</g>
	</g>
</svg>
